images/corner-start.svg

<svg fill="none" height="25" viewBox="0 0 25 25" width="25" xmlns="http://www.w3.org/2000/svg" xmlns:xlink="http://www.w3.org/1999/xlink"><mask id="a" fill="#fff"><path d="m0 0h25v25h-24.99999987z" fill="#fff"/></mask><path d="m25 0h1v-1h-1zm-24.99999999 1h24.99999999v-2h-25.00000001zm23.99999999-1v25h2v-25z" fill="#ff0070" mask="url(#a)"/></svg>

<svg width="25" height="25" viewBox="0 0 25 25" fill="none" xmlns="http://www.w3.org/2000/svg">
<mask id="path-1-inside-1_601_464" fill="white">
<path d="M0 0L25 0L25 25L1.26294e-07 25L0 0Z"/>
</mask>
<path d="M25 0L26 0L26 -1L25 -1L25 0ZM5.05178e-09 1L25 1L25 -1L-5.05178e-09 -1L5.05178e-09 1ZM24 0L24 25H26L26 0L24 0Z" fill="#FF0070" mask="url(#path-1-inside-1_601_464)"/>
</svg>
